icons/device-mobile-16.svg

<svg width="16" height="16" viewBox="0 0 16 16" xmlns="http://www.w3.org/2000/svg">
  <path fill-rule="evenodd" clip-rule="evenodd" d="M3.75 0C2.7835 0 2 0.783501 2 1.75V14.25C2 15.2165 2.7835 16 3.75 16H12.25C13.2165 16 14 15.2165 14 14.25V1.75C14 0.783502 13.2165 0 12.25 0H3.75ZM3.5 1.75C3.5 1.61193 3.61193 1.5 3.75 1.5H12.25C12.3881 1.5 12.5 1.61193 12.5 1.75V14.25C12.5 14.3881 12.3881 14.5 12.25 14.5H3.75C3.61193 14.5 3.5 14.3881 3.5 14.25V1.75ZM8 13C8.55228 13 9 12.5523 9 12C9 11.4477 8.55228 11 8 11C7.44772 11 7 11.4477 7 12C7 12.5523 7.44772 13 8 13Z"/>
</svg>

<svg xmlns="http://www.w3.org/2000/svg" width="16" height="16" viewBox="0 0 16 16"><path fill-rule="evenodd" d="M3.75 0A1.75 1.75 0 002 1.75v12.5c0 .966.784 1.75 1.75 1.75h8.5A1.75 1.75 0 0014 14.25V1.75A1.75 1.75 0 0012.25 0h-8.5zM3.5 1.75a.25.25 0 01.25-.25h8.5a.25.25 0 01.25.25v12.5a.25.25 0 01-.25.25h-8.5a.25.25 0 01-.25-.25V1.75zM8 13a1 1 0 100-2 1 1 0 000 2z"/></svg>
